assets/cards-tab/Asset/findyourcard.svg

<svg width="24" height="24" viewBox="0 0 24 24" fill="none" xmlns="http://www.w3.org/2000/svg">
<rect x="7.27002" y="21.0901" width="17.25" height="12.3261" rx="3" transform="rotate(-77.1843 7.27002 21.0901)" fill="#79C7FF"/>
<rect x="2.625" y="22.5" width="20.625" height="13.875" rx="2.25" transform="rotate(-90 2.625 22.5)" fill="#3998F8"/>
<rect x="5.25" y="22.5" width="20.625" height="3" transform="rotate(-90 5.25 22.5)" fill="#1768B9"/>
<circle cx="17.8125" cy="17.8125" r="6.1875" fill="#1768B9"/>
<mask id="path-5-outside-1_307_608" maskUnits="userSpaceOnUse" x="13.9956" y="14" width="8" height="8" fill="black">
<rect fill="white" x="13.9956" y="14" width="8" height="8"/>
<path d="M17.396 15C18.7213 15.0002 19.7954 16.075 19.7954 17.4004C19.7954 17.7229 19.7321 18.0306 19.6167 18.3115C19.514 18.5614 19.4622 18.6864 19.48 18.7754C19.4978 18.8644 19.5765 18.9432 19.7329 19.0996L20.8647 20.2314C21.0404 20.4076 21.0407 20.6931 20.8647 20.8691C20.6886 21.0453 20.4022 21.0453 20.2261 20.8691L19.0952 19.7373C18.9388 19.5808 18.86 19.5022 18.771 19.4844C18.682 19.4666 18.557 19.5184 18.3071 19.6211C18.0262 19.7365 17.7185 19.7998 17.396 19.7998C16.0706 19.7998 14.9958 18.7257 14.9956 17.4004C14.9956 16.0749 16.0705 15 17.396 15ZM17.397 15.8994C16.5685 15.8994 15.897 16.571 15.897 17.3994C15.897 18.2279 16.5685 18.8994 17.397 18.8994C18.2252 18.8992 18.897 18.2277 18.897 17.3994C18.897 16.5711 18.2252 15.8997 17.397 15.8994Z"/>
</mask>
<path d="M17.396 15C18.7213 15.0002 19.7954 16.075 19.7954 17.4004C19.7954 17.7229 19.7321 18.0306 19.6167 18.3115C19.514 18.5614 19.4622 18.6864 19.48 18.7754C19.4978 18.8644 19.5765 18.9432 19.7329 19.0996L20.8647 20.2314C21.0404 20.4076 21.0407 20.6931 20.8647 20.8691C20.6886 21.0453 20.4022 21.0453 20.2261 20.8691L19.0952 19.7373C18.9388 19.5808 18.86 19.5022 18.771 19.4844C18.682 19.4666 18.557 19.5184 18.3071 19.6211C18.0262 19.7365 17.7185 19.7998 17.396 19.7998C16.0706 19.7998 14.9958 18.7257 14.9956 17.4004C14.9956 16.0749 16.0705 15 17.396 15ZM17.397 15.8994C16.5685 15.8994 15.897 16.571 15.897 17.3994C15.897 18.2279 16.5685 18.8994 17.397 18.8994C18.2252 18.8992 18.897 18.2277 18.897 17.3994C18.897 16.5711 18.2252 15.8997 17.397 15.8994Z" fill="white"/>
<path d="M17.396 15L17.396 14.9H17.396V15ZM19.7954 17.4004L19.8954 17.4004V17.4004H19.7954ZM19.6167 18.3115L19.7092 18.3495L19.7092 18.3495L19.6167 18.3115ZM19.48 18.7754L19.3819 18.7949L19.3819 18.795L19.48 18.7754ZM19.7329 19.0996L19.8036 19.0289L19.7329 19.0996ZM20.8647 20.2314L20.9356 20.1608L20.9355 20.1607L20.8647 20.2314ZM20.8647 20.8691L20.9355 20.9399L20.9355 20.9398L20.8647 20.8691ZM20.2261 20.8691L20.1553 20.9398L20.1554 20.9399L20.2261 20.8691ZM19.0952 19.7373L19.166 19.6666L19.1659 19.6666L19.0952 19.7373ZM18.771 19.4844L18.7907 19.3863L18.7906 19.3863L18.771 19.4844ZM18.3071 19.6211L18.3451 19.7136L18.3451 19.7136L18.3071 19.6211ZM17.396 19.7998V19.8998H17.396L17.396 19.7998ZM14.9956 17.4004H14.8956V17.4004L14.9956 17.4004ZM17.397 15.8994L17.397 15.7994H17.397V15.8994ZM15.897 17.3994L15.797 17.3994V17.3994H15.897ZM17.397 18.8994V18.9994H17.397L17.397 18.8994ZM18.897 17.3994H18.997V17.3994L18.897 17.3994ZM17.396 15L17.396 15.1C18.6661 15.1002 19.6954 16.1302 19.6954 17.4004H19.7954H19.8954C19.8954 16.0198 18.7766 14.9002 17.396 14.9L17.396 15ZM19.7954 17.4004L19.6954 17.4004C19.6954 17.7097 19.6347 18.0046 19.5242 18.2735L19.6167 18.3115L19.7092 18.3495C19.8295 18.0567 19.8954 17.7361 19.8954 17.4004L19.7954 17.4004ZM19.6167 18.3115L19.5242 18.2735C19.4736 18.3967 19.433 18.4949 19.408 18.5733C19.3833 18.6504 19.3678 18.7243 19.3819 18.7949L19.48 18.7754L19.5781 18.7558C19.5744 18.7374 19.576 18.7044 19.5984 18.6343C19.6205 18.5654 19.6572 18.4761 19.7092 18.3495L19.6167 18.3115ZM19.48 18.7754L19.3819 18.795C19.3955 18.8629 19.4313 18.9199 19.4773 18.9758C19.5225 19.0308 19.5854 19.0935 19.6622 19.1703L19.7329 19.0996L19.8036 19.0289C19.724 18.9493 19.6693 18.8944 19.6317 18.8487C19.5947 18.8037 19.5823 18.7769 19.578 18.7557L19.48 18.7754ZM19.7329 19.0996L19.6622 19.1703L20.794 20.3022L20.8647 20.2314L20.9355 20.1607L19.8036 19.0289L19.7329 19.0996ZM20.8647 20.2314L20.7939 20.3021C20.9308 20.4393 20.9308 20.6616 20.794 20.7984L20.8647 20.8691L20.9355 20.9398C21.1505 20.7247 21.1501 20.3759 20.9356 20.1608L20.8647 20.2314ZM20.8647 20.8691L20.794 20.7984C20.657 20.9355 20.4339 20.9355 20.2968 20.7984L20.2261 20.8691L20.1554 20.9399C20.3706 21.155 20.7203 21.155 20.9355 20.9399L20.8647 20.8691ZM20.2261 20.8691L20.2968 20.7985L19.166 19.6666L19.0952 19.7373L19.0245 19.808L20.1553 20.9398L20.2261 20.8691ZM19.0952 19.7373L19.1659 19.6666C19.0891 19.5897 19.0264 19.5269 18.9714 19.4816C18.9155 19.4357 18.8585 19.3999 18.7907 19.3863L18.771 19.4844L18.7513 19.5824C18.7725 19.5867 18.7994 19.5991 18.8443 19.6361C18.89 19.6737 18.9449 19.7284 19.0245 19.808L19.0952 19.7373ZM18.771 19.4844L18.7906 19.3863C18.72 19.3722 18.646 19.3877 18.5689 19.4123C18.4906 19.4374 18.3924 19.478 18.2691 19.5286L18.3071 19.6211L18.3451 19.7136C18.4718 19.6616 18.561 19.6249 18.6299 19.6028C18.7 19.5804 18.733 19.5788 18.7514 19.5824L18.771 19.4844ZM18.3071 19.6211L18.2691 19.5286C18.0002 19.6391 17.7053 19.6998 17.396 19.6998L17.396 19.7998L17.396 19.8998C17.7317 19.8998 18.0523 19.8339 18.3451 19.7136L18.3071 19.6211ZM17.396 19.7998V19.6998C16.1258 19.6998 15.0958 18.6705 15.0956 17.4004L14.9956 17.4004L14.8956 17.4004C14.8958 18.781 16.0154 19.8998 17.396 19.8998V19.7998ZM14.9956 17.4004H15.0956C15.0956 16.1301 16.1257 15.1 17.396 15.1V15V14.9C16.0153 14.9 14.8956 16.0197 14.8956 17.4004H14.9956ZM17.397 15.8994V15.7994C16.5133 15.7994 15.797 16.5158 15.797 17.3994L15.897 17.3994L15.997 17.3994C15.997 16.6262 16.6238 15.9994 17.397 15.9994V15.8994ZM15.897 17.3994H15.797C15.797 18.2831 16.5133 18.9994 17.397 18.9994V18.8994V18.7994C16.6238 18.7994 15.997 18.1726 15.997 17.3994H15.897ZM17.397 18.8994L17.397 18.9994C18.2804 18.9991 18.997 18.283 18.997 17.3994H18.897H18.797C18.797 18.1724 18.17 18.7992 17.3969 18.7994L17.397 18.8994ZM18.897 17.3994L18.997 17.3994C18.997 16.5159 18.2804 15.7997 17.397 15.7994L17.397 15.8994L17.3969 15.9994C18.17 15.9996 18.797 16.6264 18.797 17.3994L18.897 17.3994Z" fill="white" mask="url(#path-5-outside-1_307_608)"/>
</svg>

<svg xmlns="http://www.w3.org/2000/svg" width="24" height="24" fill="none" viewBox="0 0 24 24"><rect width="17.25" height="12.326" x="7.27" y="21.09" fill="#79c7ff" rx="3" transform="rotate(-77.184 7.27 21.09)"/><rect width="20.625" height="13.875" x="2.625" y="22.5" fill="#3998f8" rx="2.25" transform="rotate(-90 2.625 22.5)"/><path fill="#1768b9" d="M5.25 22.5V1.875h3V22.5z"/><circle cx="17.813" cy="17.813" r="6.188" fill="#1768b9"/><mask id="a" width="8" height="8" x="13.996" y="14" fill="#000" maskUnits="userSpaceOnUse"><path fill="#fff" d="M13.996 14h8v8h-8z"/><path d="M17.396 15a2.4 2.4 0 0 1 2.22 3.311c-.102.25-.154.375-.136.464s.096.168.253.325l1.132 1.131a.451.451 0 0 1-.639.638l-1.13-1.132c-.157-.156-.236-.235-.325-.253-.089-.017-.214.034-.464.137A2.4 2.4 0 1 1 17.396 15m.001.9a1.5 1.5 0 1 0 0 3 1.5 1.5 0 0 0 0-3"/></mask><path fill="#fff" d="M17.396 15a2.4 2.4 0 0 1 2.22 3.311c-.102.25-.154.375-.136.464s.096.168.253.325l1.132 1.131a.451.451 0 0 1-.639.638l-1.13-1.132c-.157-.156-.236-.235-.325-.253-.089-.017-.214.034-.464.137A2.4 2.4 0 1 1 17.396 15m.001.9a1.5 1.5 0 1 0 0 3 1.5 1.5 0 0 0 0-3"/><path fill="#fff" d="M17.396 15v-.1zm2.4 2.4h.1zm-.18.912.093.037zm-.136.463-.098.02zm.253.325.07-.071zm1.132 1.131.07-.07zm0 .638.07.07zm-.639 0-.07.07zm-1.13-1.132.07-.07zm-.325-.253.02-.098zm-.464.137.038.093zm-.911.179v.1zm-2.4-2.4h-.1zm2.401-1.5v-.1zm-1.5 1.5h-.1zm1.5 1.5v.1zm1.5-1.5h.1zM17.396 15v.1a2.3 2.3 0 0 1 2.3 2.3h.2a2.5 2.5 0 0 0-2.5-2.5zm2.4 2.4h-.1c0 .31-.061.605-.172.874l.093.037.092.038c.12-.292.186-.613.186-.949zm-.18.912-.092-.039q-.077.184-.116.3a.45.45 0 0 0-.026.222l.098-.02.098-.02c-.004-.018-.002-.05.02-.12.023-.07.06-.159.111-.286zm-.136.463-.098.02c.013.068.05.125.095.18.046.056.108.118.185.195l.07-.07.072-.071a3 3 0 0 1-.172-.18.2.2 0 0 1-.054-.093zm.253.325-.07.07 1.131 1.132.07-.07.072-.071-1.132-1.132zm1.132 1.131-.071.071a.35.35 0 0 1 0 .496l.07.071.072.07a.55.55 0 0 0 0-.778zm0 .638-.071-.07a.35.35 0 0 1-.497 0l-.07.07-.072.07a.55.55 0 0 0 .78 0zm-.639 0 .07-.07-1.13-1.132-.07.07-.072.071 1.131 1.132zm-1.13-1.132.07-.07q-.114-.117-.195-.185a.4.4 0 0 0-.18-.096l-.02.098-.02.098a.2.2 0 0 1 .093.054c.046.038.1.092.18.172zm-.325-.253.02-.098a.45.45 0 0 0-.222.026q-.116.039-.3.117l.038.092.038.093c.127-.052.216-.09.285-.111.07-.023.103-.024.121-.02zm-.464.137-.038-.092c-.269.11-.564.17-.873.17v.2c.336 0 .656-.065.95-.185zm-.911.179v-.1a2.3 2.3 0 0 1-2.3-2.3h-.2a2.5 2.5 0 0 0 2.5 2.5zm-2.4-2.4h.1a2.3 2.3 0 0 1 2.3-2.3v-.2a2.5 2.5 0 0 0-2.5 2.5zm2.401-1.5v-.1a1.6 1.6 0 0 0-1.6 1.6h.2a1.4 1.4 0 0 1 1.4-1.4zm-1.5 1.5h-.1a1.6 1.6 0 0 0 1.6 1.6v-.2a1.4 1.4 0 0 1-1.4-1.4zm1.5 1.5v.1a1.6 1.6 0 0 0 1.6-1.6h-.2a1.4 1.4 0 0 1-1.4 1.4zm1.5-1.5h.1a1.6 1.6 0 0 0-1.6-1.6v.2a1.4 1.4 0 0 1 1.4 1.4z" mask="url(#a)"/></svg>
